X:1
T:Have You on the Lord Believed?
T:Have You on the Lord Believed?
T:Philip Paul Bliss
T:Philip Paul Bliss, 1873
T:Public Domain Courtesy of the Cyber Hymnal™
T:Public Domain Courtesy of the Cyber Hymnal™
C:Philip Paul Bliss
Z:Public Domain
Z:Courtesy of the Cyber Hymnal™
%%score ( 1 2 ) ( 3 4 )
L:1/8
M:6/8
K:E
V:1 treble 
V:2 treble 
V:3 bass 
V:4 bass 
V:1
 E2 [EF] [EG]2 [FA] | [GB]2 [Ac] [GB]3 | [GB]2 [EG] [GB]2 [EG] | [EG] [DF]4 z | %4
w: 1.~Have you on the|Lord be- lieved?|Still there’s more to|fol- low;|
w: 2.~Have you felt the|Sav- ior near?|Still there’s more to|fol- low;|
w: 3.~Have you felt the|Spir- it’s pow’r?|Still there’s more to|fol- low;|
 E2 [EF] [EG]2 [FA] | [GB]2 [Ac] [GB]3 | [GB]2 [EG] [GB]2 [EG] | [DF] E4 z | %8
w: Of His grace have|you re- ceived?|Still there’s more to|fol- low;|
w: Does His bless- èd|pre- sence cheer?|Still there’s more to|fol- low;|
w: Fall- ing like the|gen- tle show’r?|Still there’s more to|fol- low;|
 [EG]2 [EB] [Ge]2 [GB] | [Ac]2 [Ac] [GB]3 | [GB]2 [EG] [GB]2 [EG] | [EG] [DF]4 z | %12
w: Oh, the grace the|Fa- ther shows!|Still there’s more to|fol- low;|
w: Oh, the love that|Je- sus shows!|Still there’s more to|fol- low;|
w: Oh, the pow’r the|Spir- it shows!|Still there’s more to|fo- llow;|
 [EG]2 [EB] [Ge]2 [GB] | [Ac]2 [Ac] [GB]3 | [GB]2 [EG] [GB]2 [EG] | [DF] E4 z || %16
w: Free- ly He His|grace be- stows,|Still there’s more to|fol- low.|
w: Free- ly He his|love be- stows,|Still there’s more to|fol- low.|
w: Free- ly He His|pow’r be- stows,|Still there’s more to|fol- low.|
"^Refrain" [EG]2 [GB] [GB]3 | A2 [Ac] [Ac]3 | [GB]2 [EG] [GB]2 [EG] | [EG] [DF]4 z | %20
w: ||||
w: More and more,|more and more,|Al- ways more to|fol- low;|
w: ||||
 E2 [EF] [EG]2 [FA] | [GB]2 [Ge] (e c2) | [GB]2 [EG] [GB]2 [EG] | [DF] E4 z |] %24
w: ||||
w: Oh, His match- less,|bound- less love! *|Still there’s more to|fol- low.|
w: ||||
V:2
 E2 x4 | x6 | x6 | x6 | E2 x4 | x6 | x6 | x E4 x | x6 | x6 | x6 | x6 | x6 | x6 | x6 | x6 || x6 | %17
 A2 x4 | x6 | x6 | E2 x4 | x3 A3 | x6 | x E4 x |] %24
V:3
 E,6 | E,6 | [E,E]2 [E,B,] [E,E]2 [E,B,] | [B,,B,] [B,,B,]4 z | E,6 | E,6 | %6
 [E,E]2 [E,B,] [E,E]2 [E,B,] | [B,,A,] [E,G,]4 z | [E,B,]2 [E,G,] [E,B,]2 [E,E] | %9
 [A,,E]2 [C,E] [E,E]3 | [E,E]2 [E,B,] [E,E]2 [E,B,] | [B,,B,] [B,,B,]4 z | %12
 [E,B,]2 [E,G,] [E,B,]2 [E,E] | [A,,E]2 [C,E] (E2 B,) | [E,E]2 [E,B,] [E,E]2 [E,B,] | %15
 [B,,A,] [E,G,]4 z || [E,B,]2 [E,E] [E,E]3 | [A,C]2 [A,E] [A,E]3 | [E,E]2 [E,B,] [E,E]2 [E,B,] | %19
 [B,,B,] [B,,B,]4 z | [E,G,]2 [E,A,] [E,B,]2 [E,B,] | [E,B,]2 [E,B,] (C E2) | %22
 [E,E]2 [E,B,] [E,E]2 [E,B,] | [B,,A,] [E,G,]4 z |] %24
V:4
 E,6 | E,6 | x6 | x6 | E,6 | E,6 | x6 | x6 | x6 | x6 | x6 | x6 | x6 | x3 E,3 | x6 | x6 || x6 | x6 | %18
 x6 | x6 | x6 | x3 A,,3 | x6 | x6 |] %24

